packages/ffe-icons/icons/open/400/sm/dataset_linked.svg

<svg xmlns="http://www.w3.org/2000/svg" height="20" viewBox="0 -960 960 960" width="20"><path d="M216-192q-29.7 0-50.85-21.15Q144-234.3 144-264v-528q0-29.7 21.15-50.85Q186.3-864 216-864h528q29.7 0 50.85 21.15Q816-821.7 816-792v252q0 15.3-10.289 25.65-10.29 10.35-25.5 10.35Q765-504 754.5-514.35 744-524.7 744-540v-252H216v528h60q15.3 0 25.65 10.289 10.35 10.29 10.35 25.5Q312-213 301.65-202.5 291.3-192 276-192h-60Zm0-72v-528 528Zm72-180.088v71.825Q288-357 298.5-346.5 309-336 323-336q15-48 48-86t78-58H324q-15.3 0-25.65 10.325Q288-459.35 288-444.088Zm0-240v71.825Q288-597 298.325-586.5 308.65-576 323.912-576h71.825Q411-576 421.5-586.325 432-596.65 432-611.912v-71.825Q432-699 421.675-709.5 411.35-720 396.088-720h-71.825Q309-720 298.5-709.675 288-699.35 288-684.088ZM552-96q-70 0-119-49t-49-119q0-70 49-119t119-49h48q15.3 0 25.65 10.289 10.35 10.29 10.35 25.5Q636-381 625.65-370.5 615.3-360 600-360h-48q-39.6 0-67.8 28.2Q456-303.6 456-264q0 39.6 28.2 67.8Q512.4-168 552-168h48q15.3 0 25.65 10.289 10.35 10.29 10.35 25.5Q636-117 625.65-106.5 615.3-96 600-96h-48Zm11.912-480h71.825Q651-576 661.5-586.325 672-596.65 672-611.912v-71.825Q672-699 661.675-709.5 651.35-720 636.088-720h-71.825Q549-720 538.5-709.675 528-699.35 528-684.088v71.825Q528-597 538.325-586.5 548.65-576 563.912-576Zm36.364 348Q585-228 574.5-238.289q-10.5-10.29-10.5-25.5Q564-279 574.334-289.5q10.334-10.5 25.611-10.5h143.779Q759-300 769.5-289.711q10.5 10.29 10.5 25.5Q780-249 769.666-238.5 759.332-228 744.055-228H600.276ZM792-96h-48q-15.3 0-25.65-10.289-10.35-10.29-10.35-25.5Q708-147 718.35-157.5 728.7-168 744-168h48q39.6 0 67.8-28.2Q888-224.4 888-264q0-39.6-28.2-67.8Q831.6-360 792-360h-48q-15.3 0-25.65-10.289-10.35-10.29-10.35-25.5Q708-411 718.35-421.5 728.7-432 744-432h48q70 0 119 48.969t49 119.527Q960-194 911-145T792-96Z"/></svg>

<svg xmlns="http://www.w3.org/2000/svg" height="20" viewBox="0 -960 960 960" width="20"><path d="M216-192q-29.7 0-50.85-21.15Q144-234.3 144-264v-528q0-29.7 21.15-50.85Q186.3-864 216-864h528q29.7 0 50.85 21.15Q816-821.7 816-792v252q0 15.3-10.29 25.65Q795.42-504 780.21-504t-25.71-10.35Q744-524.7 744-540v-252H216v528h60q15.3 0 25.65 10.29Q312-243.42 312-228.21t-10.35 25.71Q291.3-192 276-192h-60Zm0-72v-528 528Zm72-180.09v71.83q0 15.26 10.5 25.76Q309-336 323-336q15-48 48-86t78-58H324q-15.3 0-25.65 10.32Q288-459.35 288-444.09Zm0-240v71.83q0 15.26 10.32 25.76 10.33 10.5 25.59 10.5h71.83q15.26 0 25.76-10.32 10.5-10.33 10.5-25.59v-71.83q0-15.26-10.32-25.76-10.33-10.5-25.59-10.5h-71.83q-15.26 0-25.76 10.32-10.5 10.33-10.5 25.59ZM552-96q-70 0-119-49t-49-119q0-70 49-119t119-49h48q15.3 0 25.65 10.29Q636-411.42 636-396.21t-10.35 25.71Q615.3-360 600-360h-48q-39.6 0-67.8 28.2Q456-303.6 456-264q0 39.6 28.2 67.8Q512.4-168 552-168h48q15.3 0 25.65 10.29Q636-147.42 636-132.21t-10.35 25.71Q615.3-96 600-96h-48Zm11.91-480h71.83q15.26 0 25.76-10.32 10.5-10.33 10.5-25.59v-71.83q0-15.26-10.32-25.76-10.33-10.5-25.59-10.5h-71.83q-15.26 0-25.76 10.32-10.5 10.33-10.5 25.59v71.83q0 15.26 10.32 25.76 10.33 10.5 25.59 10.5Zm36.37 348q-15.28 0-25.78-10.29-10.5-10.29-10.5-25.5t10.33-25.71q10.34-10.5 25.61-10.5h143.78q15.28 0 25.78 10.29 10.5 10.29 10.5 25.5t-10.33 25.71Q759.33-228 744.06-228H600.28ZM792-96h-48q-15.3 0-25.65-10.29Q708-116.58 708-131.79t10.35-25.71Q728.7-168 744-168h48q39.6 0 67.8-28.2Q888-224.4 888-264q0-39.6-28.2-67.8Q831.6-360 792-360h-48q-15.3 0-25.65-10.29Q708-380.58 708-395.79t10.35-25.71Q728.7-432 744-432h48q70 0 119 48.97t49 119.53q0 69.5-49 118.5T792-96Z"/></svg>
